apps/16/internet-news-reader.svg

<?xml version="1.0" encoding="UTF-8" standalone="no"?>
<svg
   xmlns:dc="http://purl.org/dc/elements/1.1/"
   xmlns:cc="http://creativecommons.org/ns#"
   xmlns:rdf="http://www.w3.org/1999/02/22-rdf-syntax-ns#"
   xmlns:svg="http://www.w3.org/2000/svg"
   xmlns="http://www.w3.org/2000/svg"
   xmlns:xlink="http://www.w3.org/1999/xlink"
   version="1.1"
   width="16"
   height="16"
   id="svg7357">
  <defs
     id="defs7359">
    <linearGradient
       x1="23.99999"
       y1="4.999989"
       x2="23.99999"
       y2="43"
       id="linearGradient4224"
       xlink:href="#linearGradient3924-4-8"
       gradientUnits="userSpaceOnUse"
       gradientTransform="matrix(0.2972973,0,0,0.2972973,0.86486973,0.86486734)" />
    <linearGradient
       id="linearGradient3924-4-8">
      <stop
         id="stop3926-0-4"
         style="stop-color:#ffffff;stop-opacity:1"
         offset="0" />
      <stop
         id="stop3928-6-8"
         style="stop-color:#ffffff;stop-opacity:0.23529412"
         offset="0.06316455" />
      <stop
         id="stop3930-2-1"
         style="stop-color:#ffffff;stop-opacity:0.15686275"
         offset="0.95056331" />
      <stop
         id="stop3932-9-0"
         style="stop-color:#ffffff;stop-opacity:0.39215687"
         offset="1" />
    </linearGradient>
    <linearGradient
       x1="223.21748"
       y1="38.0354"
       x2="223.21748"
       y2="47.986877"
       id="linearGradient5882-7"
       xlink:href="#linearGradient5803-0"
       gradientUnits="userSpaceOnUse"
       gradientTransform="translate(-215,-35.000003)" />
    <linearGradient
       id="linearGradient5803-0">
      <stop
         id="stop5805-3"
         style="stop-color:#fff5ef;stop-opacity:1"
         offset="0" />
      <stop
         id="stop5807-4"
         style="stop-color:#fef8dd;stop-opacity:1"
         offset="1" />
    </linearGradient>
    <linearGradient
       id="linearGradient2867-449-88-871-390-598-476-591-434-148-57-177-8-3-3-6-4-8-8-8">
      <stop
         id="stop3750-1-0-7-6-6-1-3-9"
         style="stop-color:#ffcd7d;stop-opacity:1"
         offset="0" />
      <stop
         id="stop3752-3-7-4-0-32-8-923-0"
         style="stop-color:#fc8f36;stop-opacity:1"
         offset="0.26238" />
      <stop
         id="stop3754-1-8-5-2-7-6-7-1"
         style="stop-color:#e23a0e;stop-opacity:1"
         offset="0.704952" />
      <stop
         id="stop3756-1-6-2-6-6-1-96-6"
         style="stop-color:#ac441f;stop-opacity:1"
         offset="1" />
    </linearGradient>
    <radialGradient
       cx="6.7304144"
       cy="9.9571075"
       r="12.671875"
       fx="6.2001843"
       fy="9.9571075"
       id="radialGradient7347"
       xlink:href="#linearGradient2867-449-88-871-390-598-476-591-434-148-57-177-8-3-3-6-4-8-8-8"
       gradientUnits="userSpaceOnUse"
       gradientTransform="matrix(0,3.1658508,-3.8866533,0,46.97684,-26.720326)" />
    <linearGradient
       xlink:href="#linearGradient3924-4-8"
       id="linearGradient3007"
       gradientUnits="userSpaceOnUse"
       gradientTransform="matrix(0.2972973,0,0,0.2972973,0.86486973,0.86486734)"
       x1="23.99999"
       y1="4.999989"
       x2="23.99999"
       y2="43" />
    <linearGradient
       xlink:href="#linearGradient5803-0"
       id="linearGradient3010"
       gradientUnits="userSpaceOnUse"
       gradientTransform="translate(-215.0678,-35.000003)"
       x1="223.21748"
       y1="38.0354"
       x2="223.21748"
       y2="47.986877" />
    <radialGradient
       xlink:href="#linearGradient4644-104-3-3-6-2-0"
       id="radialGradient3015"
       gradientUnits="userSpaceOnUse"
       gradientTransform="matrix(0,3.1658508,-3.8866533,0,46.97684,-26.720326)"
       cx="6.7304144"
       cy="9.9571075"
       fx="6.2001843"
       fy="9.9571075"
       r="12.671875" />
    <radialGradient
       xlink:href="#linearGradient4067-0-2"
       id="radialGradient3893"
       gradientUnits="userSpaceOnUse"
       gradientTransform="matrix(0.04387427,1.7755,-1.5782982,0.03900123,53.980706,-19.149218)"
       cx="8.9130278"
       cy="10.162174"
       fx="8.3827982"
       fy="10.162174"
       r="12.671875" />
    <linearGradient
       id="linearGradient4067-0-2">
      <stop
         id="stop4069-2-9"
         style="stop-color:#ffe452;stop-opacity:1"
         offset="0" />
      <stop
         id="stop4071-8-9"
         style="stop-color:#ffeb41;stop-opacity:0"
         offset="1" />
    </linearGradient>
    <linearGradient
       xlink:href="#linearGradient3924-0"
       id="linearGradient3112"
       gradientUnits="userSpaceOnUse"
       gradientTransform="matrix(0.62162164,0,0,0.62162164,24.413894,-5.3409289)"
       x1="23.99999"
       y1="4.999989"
       x2="23.99999"
       y2="43" />
    <linearGradient
       id="linearGradient3924-0">
      <stop
         id="stop3926-6"
         style="stop-color:#ffffff;stop-opacity:1"
         offset="0" />
      <stop
         id="stop3928-3"
         style="stop-color:#ffffff;stop-opacity:0.23529412"
         offset="0.06316455" />
      <stop
         id="stop3930-2"
         style="stop-color:#ffffff;stop-opacity:0.15686275"
         offset="0.95056331" />
      <stop
         id="stop3932-62"
         style="stop-color:#ffffff;stop-opacity:0.39215687"
         offset="1" />
    </linearGradient>
    <radialGradient
       xlink:href="#linearGradient4644-104-3-3-6-2-0"
       id="radialGradient3116"
       gradientUnits="userSpaceOnUse"
       gradientTransform="matrix(0,6.0881746,-7.4743333,0,114.2883,-57.191874)"
       cx="6.7304144"
       cy="9.9571075"
       fx="6.2001843"
       fy="9.9571075"
       r="12.671875" />
    <linearGradient
       id="linearGradient4644-104-3-3-6-2-0">
      <stop
         id="stop5237-6-5-1-7-8"
         style="stop-color:#ff7a35;stop-opacity:1"
         offset="0" />
      <stop
         id="stop5239-4-6-4-8-5"
         style="stop-color:#f0431a;stop-opacity:1"
         offset="1" />
    </linearGradient>
    <radialGradient
       cx="4.9929786"
       cy="43.5"
       r="2.5"
       fx="4.9929786"
       fy="43.5"
       id="radialGradient2976"
       xlink:href="#linearGradient3688-166-749-6"
       gradientUnits="userSpaceOnUse"
       gradientTransform="matrix(2.003784,0,0,1.4,27.98813,-17.4)" />
    <linearGradient
       id="linearGradient3688-166-749-6">
      <stop
         id="stop2883-8"
         style="stop-color:#181818;stop-opacity:1"
         offset="0" />
      <stop
         id="stop2885-3"
         style="stop-color:#181818;stop-opacity:0"
         offset="1" />
    </linearGradient>
    <radialGradient
       cx="4.9929786"
       cy="43.5"
       r="2.5"
       fx="4.9929786"
       fy="43.5"
       id="radialGradient2978"
       xlink:href="#linearGradient3688-464-309-7"
       gradientUnits="userSpaceOnUse"
       gradientTransform="matrix(2.003784,0,0,1.4,-20.01187,-104.4)" />
    <linearGradient
       id="linearGradient3688-464-309-7">
      <stop
         id="stop2889-0"
         style="stop-color:#181818;stop-opacity:1"
         offset="0" />
      <stop
         id="stop2891-66"
         style="stop-color:#181818;stop-opacity:0"
         offset="1" />
    </linearGradient>
    <linearGradient
       x1="25.058096"
       y1="47.027729"
       x2="25.058096"
       y2="39.999443"
       id="linearGradient2980"
       xlink:href="#linearGradient3702-501-757-3"
       gradientUnits="userSpaceOnUse" />
    <linearGradient
       id="linearGradient3702-501-757-3">
      <stop
         id="stop2895-3"
         style="stop-color:#181818;stop-opacity:0"
         offset="0" />
      <stop
         id="stop2897-28"
         style="stop-color:#181818;stop-opacity:1"
         offset="0.5" />
      <stop
         id="stop2899-8"
         style="stop-color:#181818;stop-opacity:0"
         offset="1" />
    </linearGradient>
    <radialGradient
       xlink:href="#linearGradient4067-0-2"
       id="radialGradient3879"
       gradientUnits="userSpaceOnUse"
       gradientTransform="matrix(0,3.1658508,-3.8866533,0,46.97684,-26.720326)"
       cx="6.7304144"
       cy="9.9571075"
       fx="6.2001843"
       fy="9.9571075"
       r="12.671875" />
  </defs>
  <metadata
     id="metadata7362">
    <rdf:RDF>
      <cc:Work
         rdf:about="">
        <dc:format>image/svg+xml</dc:format>
        <dc:type
           rdf:resource="http://purl.org/dc/dcmitype/StillImage" />
        <dc:title />
      </cc:Work>
    </rdf:RDF>
  </metadata>
  <rect
     style="color:#000000;fill:url(#radialGradient3015);fill-opacity:1.0;fill-rule:nonzero;stroke:none;stroke-width:0.99999994000000003;marker:none;visibility:visible;display:inline;overflow:visible;enable-background:accumulate"
     id="rect5505-21-2"
     y="1.4999971"
     x="1.5"
     ry="1"
     rx="1"
     height="13.000003"
     width="13.000003" />
  <rect
     width="13.000003"
     height="13.000003"
     rx="1"
     ry="1"
     x="1.5"
     y="1.4999971"
     id="rect3877"
     style="color:#000000;fill:url(#radialGradient3879);fill-opacity:1;fill-rule:nonzero;stroke:none;stroke-width:0.99999994000000003;marker:none;visibility:visible;display:inline;overflow:visible;enable-background:accumulate;opacity:0.4" />
  <rect
     style="opacity:0.5;fill:none;stroke:url(#linearGradient3007);stroke-width:1;stroke-linecap:round;stroke-linejoin:round;stroke-miterlimit:4;stroke-opacity:1;stroke-dasharray:none;stroke-dashoffset:0"
     id="rect6741-0-3"
     y="2.4999971"
     x="2.5"
     height="11"
     width="11" />
  <path
     id="path3883"
     d="m 4,5.0000004 0,1.3333334 c 0,0.017382 0.302312,2.6e-6 0.666664,2.6e-6 3.313712,0 6,2.6862876 6,5.9999996 0,0.366768 2e-6,0.666664 2e-6,0.666664 L 12,13 12,12.333336 C 12,8.2832484 8.716752,5.0000004 4.666664,5.0000004 z M 4,7.6666644 4,9 C 4,9 4.302312,9 4.666664,9 6.507616,9 8,10.492385 8,12.333336 8,12.700104 8,13 8,13 l 1.333336,0 0,-0.666664 C 9.333336,9.756 7.244,7.6666644 4.666664,7.6666644 z M 5.333336,10.333337 C 4.596952,10.333337 4,10.930289 4,11.666664 4,12.403048 4.596952,13 5.333336,13 c 0.736376,0 1.333328,-0.596952 1.333328,-1.333336 0,-0.736375 -0.596952,-1.333327 -1.333328,-1.333327 z"
     style="opacity:0.15;color:#000000;fill:#ba3d12;fill-opacity:1;fill-rule:nonzero;stroke:#ba3d12;stroke-width:2;stroke-linejoin:round;stroke-miterlimit:4;stroke-opacity:1;stroke-dasharray:none;marker:none;visibility:visible;display:inline;overflow:visible;enable-background:new" />
  <rect
     style="opacity:0.40000000000000002;color:#000000;fill:none;stroke:#ba3d12;stroke-width:1;stroke-linecap:round;stroke-linejoin:round;stroke-miterlimit:4;stroke-opacity:1;stroke-dasharray:none;stroke-dashoffset:0;marker:none;visibility:visible;display:inline;overflow:visible;enable-background:accumulate"
     id="rect5505-21-2-8"
     y="1.4999971"
     x="1.5"
     ry="1"
     rx="1"
     height="13.000003"
     width="13.000003" />
  <path
     style="opacity:0.3;color:#000000;fill:#ba3d12;fill-opacity:1;fill-rule:nonzero;stroke:none;stroke-width:1.69602728;marker:none;visibility:visible;display:inline;overflow:visible;enable-background:new"
     d="m 4,5.0000004 0,1.3333334 c 0,0.017382 0.302312,2.6e-6 0.666664,2.6e-6 3.313712,0 6,2.6862876 6,5.9999996 0,0.366768 2e-6,0.666664 2e-6,0.666664 L 12,13 12,12.333336 C 12,8.2832484 8.716752,5.0000004 4.666664,5.0000004 z M 4,7.6666644 4,9 C 4,9 4.302312,9 4.666664,9 6.507616,9 8,10.492385 8,12.333336 8,12.700104 8,13 8,13 l 1.333336,0 0,-0.666664 C 9.333336,9.756 7.244,7.6666644 4.666664,7.6666644 z M 5.333336,10.333337 C 4.596952,10.333337 4,10.930289 4,11.666664 4,12.403048 4.596952,13 5.333336,13 c 0.736376,0 1.333328,-0.596952 1.333328,-1.333336 0,-0.736375 -0.596952,-1.333327 -1.333328,-1.333327 z"
     id="path3881" />
  <path
     id="path3871"
     d="M 4,4.0232236 4,5.356557 c 0,0.017382 0.302312,2.6e-6 0.666664,2.6e-6 3.313712,0 6,2.686288 6,6.0000004 0,0.366768 2e-6,0.666664 2e-6,0.666664 l 1.333334,0 0,-0.666664 C 12,7.3064716 8.716752,4.0232236 4.666664,4.0232236 z m 0,2.666664 0,1.333336 c 0,0 0.302312,0 0.666664,0 C 6.507616,8.0232236 8,9.5156072 8,11.35656 c 0,0.366768 0,0.666664 0,0.666664 l 1.333336,0 0,-0.666664 C 9.333336,8.7792236 7.244,6.6898876 4.666664,6.6898876 z M 5.333336,9.3565592 C 4.596952,9.3565592 4,9.9535126 4,10.689888 c 0,0.736384 0.596952,1.333336 1.333336,1.333336 0.736376,0 1.333328,-0.596952 1.333328,-1.333336 0,-0.7363754 -0.596952,-1.3333288 -1.333328,-1.3333288 z"
     style="color:#000000;fill:#ffffff;fill-opacity:1;fill-rule:nonzero;stroke:none;stroke-width:1.69602728;marker:none;visibility:visible;display:inline;overflow:visible;enable-background:new" />
</svg>

<?xml version="1.0" encoding="UTF-8" standalone="no"?>
<svg
   xmlns:dc="http://purl.org/dc/elements/1.1/"
   xmlns:cc="http://creativecommons.org/ns#"
   xmlns:rdf="http://www.w3.org/1999/02/22-rdf-syntax-ns#"
   xmlns:svg="http://www.w3.org/2000/svg"
   xmlns="http://www.w3.org/2000/svg"
   xmlns:xlink="http://www.w3.org/1999/xlink"
   version="1.1"
   width="16"
   height="16"
   id="svg7357">
  <defs
     id="defs7359">
    <linearGradient
       id="linearGradient839">
      <stop
         style="stop-color:#ffa154;stop-opacity:1"
         offset="0"
         id="stop835" />
      <stop
         style="stop-color:#f37329;stop-opacity:1"
         offset="1"
         id="stop837" />
    </linearGradient>
    <linearGradient
       x1="23.99999"
       y1="7.1818099"
       x2="23.99999"
       y2="40.818172"
       id="linearGradient4224"
       xlink:href="#linearGradient3924-4-8"
       gradientUnits="userSpaceOnUse"
       gradientTransform="matrix(0.2972973,0,0,0.2972973,0.86486973,0.86486734)" />
    <linearGradient
       id="linearGradient3924-4-8">
      <stop
         id="stop3926-0-4"
         style="stop-color:#ffffff;stop-opacity:1"
         offset="0" />
      <stop
         id="stop3928-6-8"
         style="stop-color:#ffffff;stop-opacity:0.23529412"
         offset="0" />
      <stop
         id="stop3930-2-1"
         style="stop-color:#ffffff;stop-opacity:0.15686275"
         offset="1" />
      <stop
         id="stop3932-9-0"
         style="stop-color:#ffffff;stop-opacity:0.39215687"
         offset="1" />
    </linearGradient>
    <linearGradient
       xlink:href="#linearGradient839"
       id="linearGradient841"
       x1="7.5355248"
       y1="1.5144839"
       x2="7.5355248"
       y2="14.429667"
       gradientUnits="userSpaceOnUse" />
  </defs>
  <metadata
     id="metadata7362">
    <rdf:RDF>
      <cc:Work
         rdf:about="">
        <dc:format>image/svg+xml</dc:format>
        <dc:type
           rdf:resource="http://purl.org/dc/dcmitype/StillImage" />
        <dc:title />
      </cc:Work>
    </rdf:RDF>
  </metadata>
  <rect
     style="color:#000000;display:inline;overflow:visible;visibility:visible;opacity:1;fill:url(#linearGradient841);fill-opacity:1;fill-rule:nonzero;stroke:none;stroke-width:0.99999994;marker:none;enable-background:accumulate"
     id="rect5505-21-2"
     y="1.4999971"
     x="1.5"
     ry="1"
     rx="1"
     height="13.000003"
     width="13.000003" />
  <rect
     style="opacity:0.35;fill:none;stroke:url(#linearGradient4224);stroke-width:1;stroke-linecap:round;stroke-linejoin:round;stroke-miterlimit:4;stroke-dasharray:none;stroke-dashoffset:0;stroke-opacity:1"
     id="rect6741-0-3"
     y="2.4999971"
     x="2.5"
     height="11"
     width="11" />
  <rect
     style="color:#000000;display:inline;overflow:visible;visibility:visible;opacity:0.5;fill:none;stroke:#a62100;stroke-width:1;stroke-linecap:round;stroke-linejoin:round;stroke-miterlimit:4;stroke-dasharray:none;stroke-dashoffset:0;stroke-opacity:1;marker:none;enable-background:accumulate"
     id="rect5505-21-2-8"
     y="1.4999971"
     x="1.5"
     ry="1"
     rx="1"
     height="13.000003"
     width="13.000003" />
  <path
     id="path3883"
     d="m 4,5 v 1.3333334 c 0,0.017382 0.302312,2.6e-6 0.666664,2.6e-6 3.313712,0 6,2.6862876 6,6 0,0.366768 2e-6,0.666664 2e-6,0.666664 H 12 V 12.333336 C 12,8.283248 8.716752,5 4.666664,5 Z m 0,2.666664 v 1.3333356 c 0,0 0.302312,0 0.666664,0 C 6.507616,8.9999996 8,10.492385 8,12.333336 8,12.700104 8,13 8,13 H 9.333336 V 12.333336 C 9.333336,9.7559996 7.244,7.666664 4.666664,7.666664 Z m 1.333336,2.666673 C 4.596952,10.333337 4,10.930289 4,11.666664 4,12.403048 4.596952,13 5.333336,13 c 0.736376,0 1.333328,-0.596952 1.333328,-1.333336 0,-0.736375 -0.596952,-1.333327 -1.333328,-1.333327 z"
     style="color:#000000;display:inline;overflow:visible;visibility:visible;opacity:0.15;fill:#a62100;fill-opacity:1;fill-rule:nonzero;stroke:#ba3d12;stroke-width:2;stroke-linejoin:round;stroke-miterlimit:4;stroke-dasharray:none;stroke-opacity:1;marker:none;enable-background:new" />
  <path
     style="color:#000000;display:inline;overflow:visible;visibility:visible;opacity:0.3;fill:#a62100;fill-opacity:1;fill-rule:nonzero;stroke:none;stroke-width:1.69602728;marker:none;enable-background:new"
     d="m 4,5 v 1.3333334 c 0,0.017382 0.302312,2.6e-6 0.666664,2.6e-6 3.313712,0 6,2.6862876 6,6 0,0.366768 2e-6,0.666664 2e-6,0.666664 H 12 V 12.333336 C 12,8.283248 8.716752,5 4.666664,5 Z m 0,2.666664 v 1.3333356 c 0,0 0.302312,0 0.666664,0 C 6.507616,8.9999996 8,10.492385 8,12.333336 8,12.700104 8,13 8,13 H 9.333336 V 12.333336 C 9.333336,9.7559996 7.244,7.666664 4.666664,7.666664 Z m 1.333336,2.666673 C 4.596952,10.333337 4,10.930289 4,11.666664 4,12.403048 4.596952,13 5.333336,13 c 0.736376,0 1.333328,-0.596952 1.333328,-1.333336 0,-0.736375 -0.596952,-1.333327 -1.333328,-1.333327 z"
     id="path3881" />
  <path
     id="path3871"
     d="m 4,4.0232232 v 1.3333334 c 0,0.017382 0.302312,2.6e-6 0.666664,2.6e-6 3.313712,0 6,2.686288 6,6.0000008 0,0.366768 2e-6,0.666664 2e-6,0.666664 H 12 V 11.35656 C 12,7.3064712 8.716752,4.0232232 4.666664,4.0232232 Z m 0,2.666664 v 1.333336 c 0,0 0.302312,0 0.666664,0 C 6.507616,8.0232232 8,9.5156068 8,11.35656 c 0,0.366768 0,0.666664 0,0.666664 H 9.333336 V 11.35656 C 9.333336,8.7792232 7.244,6.6898872 4.666664,6.6898872 Z M 5.333336,9.3565588 C 4.596952,9.3565588 4,9.9535122 4,10.689888 c 0,0.736384 0.596952,1.333336 1.333336,1.333336 0.736376,0 1.333328,-0.596952 1.333328,-1.333336 0,-0.7363758 -0.596952,-1.3333292 -1.333328,-1.3333292 z"
     style="color:#000000;display:inline;overflow:visible;visibility:visible;fill:#ffffff;fill-opacity:1;fill-rule:nonzero;stroke:none;stroke-width:1.69602728;marker:none;enable-background:new" />
</svg>
